bakery/img/facebook.svg

<svg width="31" height="31" viewBox="0 0 31 31" fill="none" xmlns="http://www.w3.org/2000/svg">
<path d="M15.5 31C24.0604 31 31 24.0604 31 15.5C31 6.93959 24.0604 0 15.5 0C6.93959 0 0 6.93959 0 15.5C0 24.0604 6.93959 31 15.5 31Z" fill="white"/>
<path d="M19.3967 16.1069H16.6309V26.2395H12.4405V16.1069H10.4475V12.5459H12.4405V10.2416C12.4405 8.59369 13.2232 6.01331 16.6682 6.01331L19.7722 6.02629V9.48283H17.52C17.1506 9.48283 16.6312 9.6674 16.6312 10.4535V12.5492H19.7628L19.3967 16.1069Z" fill="#412D22"/>
</svg>

<svg width="31" height="31" fill="none" xmlns="http://www.w3.org/2000/svg"><path d="M15.5 31C24.06 31 31 24.06 31 15.5 31 6.94 24.06 0 15.5 0 6.94 0 0 6.94 0 15.5 0 24.06 6.94 31 15.5 31z" fill="#fff"/><path d="M19.397 16.107H16.63V26.24h-4.19V16.107h-1.994v-3.561h1.994v-2.304c0-1.648.782-4.229 4.227-4.229l3.104.013v3.457H17.52c-.37 0-.889.184-.889.97v2.096h3.132l-.366 3.558z" fill="#412D22"/></svg>
